!!!!SEGMENT: pl-wtm--r-244-n--002_noskowski-zygmunt-piesni-ludowe-terli-pec.krn
!!!id: 18xx:2146
!!!COM: Noskowski, Zygmunt
!!!OTL: Pieśni ludowe – Terli pęc
!!!PDT:
!!!SMS-siglum: PL-Wtm
!!!SMS-shelfmark: R 244/N
!!!NIFC-rismID: 1001101055
!!!URL-scan: http://repozytorium.nifc.pl/skany/pl-wtm-nut--r244n
!!!ONB-nifc: UWAGA: w zbiorze: 1. Matulu moja!, 2. Terli pęc!, 3. Kochałem!
!!!SMS-variant:
!!!SMS-altvar:
!!!OMD: Allegro moderato.
**kern	**dynam	**kern	**text	**text	**text	**dynam
*part2	*part2	*part1	*part1	*part1	*part1	*part1
*staff2	*	*staff1	*staff1	*staff1	*staff1	*
*I"Basy	*	*I"Tenory	*	*	*	*
*clefF4	*	*clefG2	*	*	*	*
*	*	*ITrd8c12	*	*	*	*
*k[f#]	*	*k[f#]	*	*	*	*
*M3/4	*	*M3/4	*	*	*	*
*>[A,A,A,B]	*>[A,A,A,B]	*>[A,A,A,B]	*>[A,A,A,B]	*>[A,A,A,B]	*>[A,A,A,B]	*>[A,A,A,B]
=1	=1	=1	=1	=1	=1	=1
*>A	*>A	*>A	*>A	*>A	*>A	*>A
*^	*	*^	*	*	*	*
!	!	!LO:DY::rj	!LO:TX:a:t=Terli pęc! (Mazur)	!	!	!	!	!LO:DY:b:rj
2D/	2D\	f	2d/	2d\	Ter-	.	.	f
4D/	4D\	.	4d/	4d\	-li	.	.	.
=2	=2	=2	=2	=2	=2	=2	=2	=2
2.D/	2.D\	.	2.d/	2.d\	pęc!	.	.	.
=3	=3	=3	=3	=3	=3	=3	=3	=3
8F#/	8D\	.	8d/	8c\	ter-	.	.	.
8F#/	8D\	.	8d/	8c\	-li	.	.	.
4F#/	4D\	.	4d/	4c\	pęc,	.	.	.
4G/	4D\	.	4d/	4B\	pęc	.	.	.
=4	=4	=4	=4	=4	=4	=4	=4	=4
8F#/	8D\	.	8d/	8A\	ter-	.	.	.
8G/	8D\	.	8d/	8B\	-li	.	.	.
4A/	4D\	.	4d/	4c\	pęc,	.	.	.
4D/	4D\	.	4d/	4d\	pęc	.	.	.
!!LO:LB:g=original
=5||	=5||	=5||	=5||	=5||	=5||	=5||	=5||	=5||
!	!LO:N:vis=8	!	!LO:N:vis=8	!	!	!	!	!
8.BB/	8.BB\	.	8.G/	8.G\	1. Hej-	2. Gaj-	3. Prze-	.
16D/	16D\	.	16F#/	16F#\	-że	-da-	-ni-	.
(8E/L	(8E\L	.	(8G/L	(8G\L	da-	-ki	-czka	.
8F#/J)	8F#\J)	.	8A/J)	8A\J)	.	.	.	.
(8G/L	(8G\L	.	(8B/L	(8B\L	-lej	mi	mi	.
8A/J)	8A\J)	.	8c/J)	8c\J)	.	.	.	.
=6	=6	=6	=6	=6	=6	=6	=6	=6
!	!LO:N:vis=8	!	!	!	!	!	!	!
8.G/	8.G\	.	8.d/	8.B\	do	się	się	.
16G/	16G\	.	16d/	16B\	ma-	zro-	zro-	.
4.G/	4.C\	.	4.e/	4.c\	-zu-	-dzi-	-dzi-	.
8F#/	8D\	.	8d/	8c\	-ra,	-ły	-ła	.
=7	=7	=7	=7	=7	=7	=7	=7	=7
8G/	8GG\	.	8d/	8B\	Po-	Oj	Oj	.
8G/	8GG\	.	8B/	8B\	-daj-	da	da	.
4.G/	4.BB\	.	4.g/	4.d\	-cież	nie	spła-	.
8G/	8C\	.	8e/	8c\	mi	ma	-wi-	.
=8	=8	=8	=8	=8	=8	=8	=8	=8
8F#/	8D\	.	8d/	8c\	rącz-	ko-	-łem	.
8F#/	8D\	.	8d/	8c\	-kę	-mu	do	.
4.G/	4.AA\	.	4.e/	4.c\	któ-	ko-	Gdań-	.
8F#/	8D\	.	8d/	8c\	-ra	-pać	-ska	.
!!LO:LB:g=original
=9	=9	=9	=9	=9	=9	=9	=9	=9
8G/	8G\	.	8d/	8B\	Po-	Oj	Oj	.
8G/	8Fn\	.	8B/	8B\	-daj-	da	da	.
4.G/	4.E\	.	4.g/	4.c\	-cież	nie	spła-	.
8G/	8C\	.	8e/	8c\	mi	ma	-wi-	.
=10	=10	=10	=10	=10	=10	=10	=10	=10
8G#X/	8E\	.	8d/	8B\	rą-	ko-	-łem	.
8A/	8F#\	.	8d/	8B\	-czkę	-mu	do	.
4.G#X/	4.G#X\	.	4.e/	4.B\	któ-	ko-	Gdań-	.
!LO:TX:b:t=rit	!	!	!LO:TX:a:t=rit	!	!	!	!	!
8E/	8GG#y\	.	8d/	8B\	-ra,	-pać,	-ska,	.
=11	=11	=11	=11	=11	=11	=11	=11	=11
8.E/	8.AA\	.	8.c/	8.A\	Po-	Dziew-	Pie-	.
16E/	16BB\	.	16B/	16G#X\	-daj-	-czy-	-niąż-	.
4E/	4C\	.	4A/	4A\	-cież	-ce	-ki	.
4F#/	4C\	.	4d/	4A\	mi	mnie	się	.
=12	=12	=12	=12	=12	=12	=12	=12	=12
!	!	!	!LO:N:vis=8	!	!	!	!	!
8.D/	8.BB\	.	8.G/	8.G\	o-	po-	prze-	.
16D/	16AA\	.	16A/	16F#\	-bie	-rzu-	-hu-	.
4D/	4GG\	.	4B/	4G\	rę-	-ci-	-la-	.
4D/	4BB\	.	4d/	4G\	-ce,	-ły	-ły	.
=13	=13	=13	=13	=13	=13	=13	=13	=13
8.E/	8.C\	.	8.c/	8.G\	Niech	Oj,	Oj	.
16E/	16C#X\	.	16B/	16G\	się	da	da	.
4F#/	4D\	.	4A/	4F#\	w ko-	któż	nie	.
4F#/	4F#\	.	4d/	4A\	-ło	mnie	ma	.
!!LO:PB:g=original
=14	=14	=14	=14	=14	=14	=14	=14	=14
!LO:N:vis=8	!	!	!LO:N:vis=8	!	!	!	!	!
8.E/	8.E\	.	8.G/	8.G\	raz	bę-	ni	.
16E/	16C\	.	16A/	16F#\	wy-	-dzie	sze-	.
4D#X/	4BB\	.	4B/	4F#\	-krę-	ko-	-ląż-	.
4E/	4E\	.	4G/	4G\	-cę	-chać,}	-ka,}	.
=15	=15	=15	=15	=15	=15	=15	=15	=15
!	!	!	!LO:TX:t=P:problem:w t. 15-16 tekst 3 zwrotki niewidoczny, w t. 14 klamra łącząca zwrotkę 2 i 3	!	!	!	!	!
8.E/	8.AA\	.	8.c/	8.G\	Po-	Ter-	.	.
16D/	16BB\	.	16B/	16G\	-daj-	-li	.	.
4E/	4C\	.	4A/	4G\	-cież	pęc,	.	.
4C/	4AA\	.	4d/	4F#\	mi	pęc,	.	.
=16	=16	=16	=16	=16	=16	=16	=16	=16
8.D/	8.BB\	.	8.G/	8.Fn\	o-	ter-	.	.
16C/	16AA\	.	16A/	16F\	-bie	-li	.	.
4D/	4GG\	.	4Bn/	4G\	rę-	pęc	.	.
4Fn/	4BB\	.	4d/	4G\	-ce,	pęc	.	.
=17	=17	=17	=17	=17	=17	=17	=17	=17
8.E/	8.C\	.	8.c/	8.G\	Niech	{Oj-	{Oj	.
16E/	16E\	.	16B/	16G\	się	-da	da	.
4F#/	4F#\	.	4A/	4A\	w ko-	któż	nie	.
4F#/	4D\	.	4d/	4A\	-ło	mnie	mam	.
!!LO:LB:g=original
=18	=18	=18	=18	=18	=18	=18	=18	=18
!	!	!	!LO:N:vis=8	!	!	!	!	!
8.D/	8.BB\	.	8.G/	8.G\	raz	bę-	ni	.
16D/	16D\	.	16A/	16F#\	wy-	-dzie	sze-	.
4D/	4GG\	.	4B/	4G\	-krę-	ko-	-ląż-	.
4D/	4GG\	.	4G/	4G\	-cę!	-chać?	-ka!	.
=19:|!	=19:|!	=19:|!	=19:|!	=19:|!	=19:|!	=19:|!	=19:|!	=19:|!
*>B	*>B	*>B	*>B	*>B	*>B	*>B	*>B	*>B
!	!	!LO:DY:rj	!LO:N:vis=8	!	!	!	!	!LO:DY:b:rj
8.F#/	8.D\	ff	8.d/	8.d\	Ter-	.	.	ff
16G/	16E\	.	16d/	16d\	-li	.	.	.
4A/	4F#\	.	4d/	4c\	pęc,	.	.	.
4c/	4A\	.	4f#/	4d\	pęc,	.	.	.
=20	=20	=20	=20	=20	=20	=20	=20	=20
[2.B;/	[2.G;\	.	[2.g;/	[2.d;\	pęc!	.	.	.
=21	=21	=21	=21	=21	=21	=21	=21	=21
8B/]	8G\]	.	8g/]	8d\]	.	.	.	.
8r	8ryy	.	8r	8ryy	.	.	.	.
4r	4ryy	.	4r	4ryy	.	.	.	.
4r	4ryy	.	4r	4ryy	.	.	.	.
*v	*v	*	*	*	*	*	*	*
*	*	*v	*v	*	*	*	*
==	==	==	==	==	==	==
*-	*-	*-	*-	*-	*-	*-
!!!system-decoration: {(s1,s2)}
!!!RDF**kern: > = above
!!!RDF**kern: < = below
!!!ENC: Marcin Jachim
!!!END: 2021-05-22
!!!ENC: Marta Lawrence
!!!END: 2021-05-31
